svgs/sharp-light/pedestal.svg

<svg xmlns="http://www.w3.org/2000/svg" viewBox="0 0 448 512"><!--! Font Awesome Pro 6.6.0 by @fontawesome - https://fontawesome.com License - https://fontawesome.com/license (Commercial License) Copyright 2024 Fonticons, Inc. --><path d="M384 32L64 32l0 416-32 0L32 32 32 0 64 0 384 0l32 0 0 32 0 416-32 0 0-416zM16 480l416 0 16 0 0 32-16 0L16 512 0 512l0-32 16 0zM112 96a16 16 0 1 1 32 0 16 16 0 1 1 -32 0zM320 80a16 16 0 1 1 0 32 16 16 0 1 1 0-32z"/></svg>

<svg xmlns="http://www.w3.org/2000/svg" viewBox="0 0 448 512"><!--! Font Awesome Pro 6.4.2 by @fontawesome - https://fontawesome.com License - https://fontawesome.com/license (Commercial License) Copyright 2023 Fonticons, Inc. --><path d="M384 32H64V448H32V32 0H64 384h32V32 448H384V32zM16 480H432h16v32H432 16 0V480H16zM112 96a16 16 0 1 1 32 0 16 16 0 1 1 -32 0zM320 80a16 16 0 1 1 0 32 16 16 0 1 1 0-32z"/></svg>
